X:253
T: ACH WIE IST ES MOEGLICH DANN, DASS ICH DICH VERLASSEN KANN
N: Z0252
O: Europa, Mitteleuropa, Deutschland
R: lyrisches Lied, Romanze, Liebe
M: 3/8
L: 1/16
K: G
 | d3edc | B3BB2 |
B3cBA | G3GG2 |
A2A2A2 | B3cd2 |
d2edcB | B2A2z2 |
d2d2d2 | e3fg2 |
d2dedc | BABcB2 |
G2B2d2 | ecAcB2 |
G2B2d2 | ecAcB2 |
d2ecAc | c2B2z2

@@@ Tune index: 10011
